X:467
T: "Keine Antwort und doch eine"
N: Z1147
O: Europa, Mitteleuropa, Deutschland, Westfalen
R: Liebes - Lied
M: 4/4
L: 1/8
K: G
DDD | G2B2B2AG | A2z3
DDF | A2c2c2BA | B4z
ddc | BcddedcB | c4z
ccB | ABccdcBA | B4z2
GA | B2d2A4 | G4z

